app/dist/common/images/dt-midstream.svg

<svg height="18" viewBox="0 0 18 18" width="18" xmlns="http://www.w3.org/2000/svg"><path d="m0 0h18v18h-18z" fill="#f0f3fa"/><path d="m6.38 9.15h-1.38v1.81c.23.02 1.03.03 2.36 0 1.34-.03 1.75-1.22 1.79-1.81h-1.39c0 .8-.92.83-1.38.74zm4.07 1.85v-1.85h1.39v1.85z" fill="#00205b"/><path d="m6.38 8.85h-1.38v-1.85h2.27c1.5 0 1.79 1.23 1.88 1.85h-1.39c-.07-.7-.5-.74-1.38-.74zm2.98-.74v-1.11h3.64v1.11h-1.16v.74h-1.39v-.74z" fill="#43b02a"/></svg>

<!-- by TradingView --><svg width="18" height="18" viewBox="0 0 18 18" xmlns="http://www.w3.org/2000/svg"><path fill="#F0F3FA" d="M0 0h18v18H0z"/><path d="M6.38 9.15H5v1.81c.23.02 1.03.03 2.36 0 1.34-.03 1.75-1.22 1.79-1.81H7.76c0 .8-.92.83-1.38.74v-.74ZM10.45 11V9.15h1.39V11h-1.39Z" fill="#00205B"/><path d="M6.38 8.85H5V7h2.27c1.5 0 1.79 1.23 1.88 1.85H7.76c-.07-.7-.5-.74-1.38-.74v.74ZM9.36 8.11V7H13v1.11h-1.16v.74h-1.39v-.74H9.36Z" fill="#43B02A"/></svg>
